src/normal/mp_on.svg

<!-- Generated by IcoMoon.io -->
<svg version="1.1" xmlns="http://www.w3.org/2000/svg" width="24" height="24" viewBox="0 0 24 24">
<title>microphone</title>
<path d="M14 1h-5c-1.656 0-3 1.343-3 3v9c0 1.657 1.344 3 3 3h5c1.656 0 3-1.343 3-3v-9c0-1.657-1.344-3-3-3zM15 6v1h-2v1h2v1h-2v1h2v1h-2v1h2v1c0 0.551 0.072 1-0.479 1h-6.042c-0.551 0-0.479-0.449-0.479-1v-1h2v-1h-2v-1h2v-1h-2v-1h2v-1h-2v-1h2v-1h-2v-1c0-0.551-0.072-1 0.479-1h6.041c0.552 0 0.48 0.449 0.48 1v1h-2v1h2zM19 12v-2h-1v5c0 1.121-0.729 2-2.325 2h-8.35c-1.596 0-2.325-0.879-2.325-2v-5h-1v2h-1v2h1v1c0 2.243 0.608 3 3.325 3h1.675v3h-2v2h9v-2h-2v-3h1.675c2.717 0 3.325-0.757 3.325-3v-1h1v-2h-1z"></path>
</svg>

<svg xmlns="http://www.w3.org/2000/svg" width="24" height="24"><path d="M14 1H9a3 3 0 00-3 3v9a3 3 0 003 3h5a3 3 0 003-3V4a3 3 0 00-3-3zm1 5v1h-2v1h2v1h-2v1h2v1h-2v1h2v1c0 .551.072 1-.479 1H8.479C7.928 14 8 13.551 8 13v-1h2v-1H8v-1h2V9H8V8h2V7H8V6h2V5H8V4c0-.551-.072-1 .479-1h6.041c.552 0 .48.449.48 1v1h-2v1h2zm4 6v-2h-1v5c0 1.121-.729 2-2.325 2h-8.35C5.729 17 5 16.121 5 15v-5H4v2H3v2h1v1c0 2.243.608 3 3.325 3H9v3H7v2h9v-2h-2v-3h1.675C18.392 18 19 17.243 19 15v-1h1v-2h-1z"/></svg>
